assets/icons/send.svg

<svg width="21" height="20" viewBox="0 0 21 20" fill="none" xmlns="http://www.w3.org/2000/svg">
<path d="M3.20723 1.8756C2.51937 1.54703 1.76365 2.1756 1.96008 2.91203L3.40008 8.29275C3.43617 8.42798 3.51119 8.54963 3.61583 8.64258C3.72047 8.73554 3.85011 8.7957 3.98866 8.8156L11.0487 9.82417C11.2529 9.85275 11.2529 10.1485 11.0487 10.1777L3.98937 11.1856C3.85083 11.2055 3.72119 11.2657 3.61655 11.3586C3.51191 11.4516 3.43689 11.5732 3.4008 11.7085L1.96008 17.092C1.76365 17.8277 2.51937 18.4563 3.20723 18.1285L18.5629 10.8077C19.2408 10.4849 19.2408 9.51918 18.5629 9.1956L3.20723 1.8756Z" fill="white"/>
</svg>

<svg xmlns="http://www.w3.org/2000/svg" width="21" height="20" fill="none" viewBox="0 0 21 20"><path fill="#fff" d="M3.207 1.876A.893.893 0 0 0 1.96 2.912l1.44 5.38a.71.71 0 0 0 .589.524l7.06 1.008c.204.029.204.325 0 .354l-7.06 1.008a.72.72 0 0 0-.588.523l-1.44 5.383a.893.893 0 0 0 1.246 1.037l15.356-7.321a.893.893 0 0 0 0-1.612z"/></svg>
